packages/ffe-icons/icons/filled/lg/pill.svg

<svg xmlns="http://www.w3.org/2000/svg" height="40" viewBox="0 -960 960 960" width="40"><path d="m643.46-352.924 116.308-116.923q28.923-28.923 44.577-66.446 15.654-37.523 15.654-78.707 0-85.644-59.715-145.321-59.715-59.678-145.412-59.678-41.026 0-78.564 15.654-37.538 15.654-66.461 44.577L352.924-643.46 643.46-352.924ZM345.128-140.001q41.026 0 78.564-15.654 37.538-15.654 66.461-44.577L607.076-316.54 316.54-607.076 200.232-490.153q-28.923 28.923-44.577 66.446-15.654 37.523-15.654 78.707 0 85.644 59.715 145.321 59.715 59.678 145.412 59.678Z"/></svg>

<svg xmlns="http://www.w3.org/2000/svg" viewBox="0 -960 960 960" width="32" height="32"><path d="m643.46-352.92 116.31-116.93q28.92-28.92 44.57-66.44Q820-573.82 820-615q0-85.64-59.72-145.32Q700.57-820 614.87-820q-41.02 0-78.56 15.66-37.54 15.65-66.46 44.57L352.92-643.46l290.54 290.54ZM345.13-140q41.02 0 78.56-15.66 37.54-15.65 66.46-44.57l116.93-116.31-290.54-290.54-116.31 116.93q-28.92 28.92-44.57 66.44Q140-386.18 140-345q0 85.64 59.72 145.32Q259.43-140 345.13-140Z"/></svg>
